epam-assets/icon-sources/18/action-eye-off.svg

<svg width="18" height="18" viewBox="0 0 18 18" fill="none" xmlns="http://www.w3.org/2000/svg">
<g id="18/action-eye-off" clip-path="url(#clip0_16848_30263)">
<g id="icon">
<path d="M8.0375 6C9.5375 6.075 10.7375 7.275 10.8125 8.775L13.8875 11.85C15.2375 10.35 16.0625 8.925 16.0625 8.925C16.0625 8.925 12.7625 2.925 7.8125 2.925C6.9875 3 6.1625 3.15 5.4125 3.45L8.0375 6Z" fill="#6C6F80"/>
<path d="M12.7625 12.975L10.3625 10.5L7.4375 7.575L6.2375 6.45L1.2875 1.5L0.2375 2.55L2.7875 5.1C0.7625 6.825 -0.4375 9 -0.4375 9C-0.4375 9 2.8625 15 7.8125 15C9.2375 15 10.4375 14.55 11.5625 13.875L14.2625 16.575L15.3125 15.525L12.7625 12.975ZM7.8125 12C6.1625 12 4.8125 10.65 4.8125 9C4.8125 8.475 4.9625 7.95 5.1875 7.5L6.3125 8.625C6.3125 8.775 6.3125 8.925 6.3125 9C6.3125 9.825 6.9875 10.5 7.8125 10.5C7.9625 10.5 8.0375 10.5 8.1875 10.425L9.3125 11.55C8.8625 11.85 8.3375 12 7.8125 12Z" fill="#6C6F80"/>
</g>
</g>
<defs>
<clipPath id="clip0_16848_30263">
<rect width="18" height="18" fill="white"/>
</clipPath>
</defs>
</svg>

<svg xmlns="http://www.w3.org/2000/svg" width="18" height="18" fill="none" viewBox="0 0 18 18">
  <g clip-path="url(#a)">
    <path fill="#6C6F80" d="M8.037 6c1.5.075 2.7 1.275 2.775 2.775l3.075 3.075a19.553 19.553 0 0 0 2.175-2.925s-3.3-6-8.25-6c-.825.075-1.65.225-2.4.525L8.037 6Zm4.725 6.975-2.4-2.475-2.925-2.925-1.2-1.125-4.95-4.95-1.05 1.05 2.55 2.55C.763 6.825-.437 9-.437 9s3.3 6 8.25 6c1.425 0 2.625-.45 3.75-1.125l2.7 2.7 1.05-1.05-2.55-2.55ZM7.812 12c-1.65 0-3-1.35-3-3 0-.525.15-1.05.375-1.5l1.125 1.125V9c0 .825.675 1.5 1.5 1.5.15 0 .225 0 .375-.075l1.126 1.125c-.45.3-.976.45-1.5.45Z"/>
  </g>
  <defs>
    <clipPath id="a">
      <path fill="#fff" d="M0 0h18v18H0z"/>
    </clipPath>
  </defs>
</svg>
